X:682
T: Cloch Na Ceithre Mhile
Z: Piano Box Version by Martin Fleischmann
H: Created 2015-04-09 /  Last Modified 2015-05-06
R: reel
M: 4/4
L: 1/8
K: Ador
"fiddle"A,2EA, ~A,2EA,|A,2GE DB,A,B,|G,2(3B,A,G, DG,B,A,|G,B,~B,2 G,B,DB,|
A,2EA, A,AAB|cdBc A^GAB| (3cdc (3BcB AGEA|GEDB, G,A,A,G,:|
|:A,ABA eABA|EFGE EDB,G,|{B,}A,G,DG, Ez DD|(3ded (3BdB (3GAG DB,|
A,AA^G ABce|AG EDE2AB|(3cdc (3BcB AGEA|GEDB, G,A,A,G,:|
"flute"A2eA ~A2eA|~A2ge dBAB|G2(3BAG dGBA|G~B3 GBdB|
A2eA ~A2AB|(3cBA BG AGAB| (3cBA BG AG.E A|GEDB GA (3BAG:|
|:AA ~A2 eA ~A2|A ~e3 d2BG|AGdG eG .d2|(3ded (3BdB (3GAG DA|
AE ~A2 AB (3cde|AG ED~E2AB|(3cBA BG AGEA|GEDB GAAG:|

